X:114 
T:Killannan's Fancy (reel) 
B:CRE3.116 (Rogha UÃÂÃÂÃÂÃÂ­ ChuileanÃÂÃÂÃÂÃÂ¡in)
F:file ID: cre.3/114kill_f
R:reel
L:1/8
Q:180
M:C
K:G
GEDE G3B|ADED BDAD|GEDE G2Bd|egdB c2BA|
GEE2 G3z|ADED BDAD|GEDE G2Bd|egdB G2||
Bd|g3b a2ab|gabg agef|g3b a3b|gabg a2ef|
gfge a3b|gabg afg2|e2 e/d/e edBd|gedB A4 |]

%%%

